site/static/img/page-collecte/etape-9-bis.svg

<svg height="159" viewBox="0 0 159 159" width="159" xmlns="http://www.w3.org/2000/svg"><g fill="none" fill-rule="evenodd" transform="translate(3 2)"><path d="m155 76.4996273c0 42.2503907-34.47442 76.5003727-77 76.5003727-42.5263302 0-77-34.249982-77-76.5003727 0-42.2496456 34.4736698-76.4996273 77-76.4996273 42.52558 0 77 34.2499817 77 76.4996273" fill="#fff"/><path d="m64 73.5312845 8.0607039 4.4687155 12.9392961-5" stroke="#9e223e" stroke-linecap="round" stroke-linejoin="round" stroke-width="2.2"/><path d="m120.759179 71c-.274662 0-.540789-.1527821-.675017-.4181821-.191642-.3788052-.045001-.8434519.328198-1.037186l10.48215-5.4592053c.373198-.1945216.830192-.0456771 1.021835.3331281.190866.3780177.044225.8426644-.328974 1.0363984l-10.48215 5.4599929c-.110951.0574902-.22966.085054-.346042.085054" fill="#9e223e"/><path d="m130.757951 66c-.148968 0-.299488-.0433244-.431387-.1322534-.344488-.2333437-.429834-.6969907-.191641-1.034465l2.482024-3.5123164c.23897-.3382343.711478-.4226028 1.055966-.1884991.344489.2333437.430611.6969907.192417 1.0337049l-2.4828 3.5130765c-.147416.2090212-.384058.3207525-.624579.3207525" fill="#9e223e"/><path d="m135.330049 68c-.068488 0-.138347-.0129825-.20752-.0397589l-3.660036-1.4126586c-.352032-.1363163-.5438-.5834013-.429424-.9996528.114376-.4170629.491749-.6442567.843781-.5087518l3.66072 1.4126586c.351347.1363163.5438.5842126.429424.9996527-.092459.3351109-.354771.5485108-.636945.5485108" fill="#9e223e"/><path d="m132.703515 66c-.255152 0-.501679-.1286808-.626021-.3528772-.176809-.3190488-.040968-.7097343.304745-.8735701l3.594408-1.7020356c.344994-.1631725.769049-.0378083.945859.2812405.176809.3183855.040968.7097342-.304745.8729068l-3.594408 1.7026989c-.102061.0484211-.212028.0716367-.319838.0716367" fill="#9e223e"/><path d="m130 64-10 5" fill="#e8364b"/><path d="m119.876905 70c-.317804 0-.624989-.1733973-.77972-.4755175-.221476-.430086-.051577-.9578498.379241-1.1781932l10.246332-5.2496226c.431577-.2203434.95948-.0514892 1.180198.3793539.221477.4293287.050819.9570926-.379241 1.1774359l-10.247849 5.2496227c-.127425.0658759-.263952.0969208-.398961.0969208" fill="#e8364b"/><path d="m132 61-2 3" fill="#e8364b"/><path d="m129.838105 65c-.165496 0-.330991-.0475982-.476889-.1478427-.381076-.2617899-.475437-.7810424-.211951-1.1589429l2.322021-3.3340341c.263487-.3779005.786831-.4730968 1.16718-.211307.381076.2625111.476163.7810424.211951 1.1603853l-2.322747 3.3333129c-.161866.2329425-.423901.3584285-.689565.3584285" fill="#e8364b"/><path d="m135 66-4-1" fill="#e8364b"/><path d="m135.094215 67c-.092469 0-.187289-.014064-.280542-.0429323l-4.188533-1.28871c-.475667-.1465621-.735834-.6291807-.57989-1.0784897.154376-.4485687.665307-.6935791 1.140974-.5477572l4.187749 1.28871c.47645.1458218.735834.6291806.581458 1.0784896-.125382.3604835-.480369.5906896-.861216.5906896" fill="#e8364b"/><path d="m135 62-4 2" fill="#e8364b"/><path d="m131.790915 65c-.287185 0-.56343-.187802-.703603-.5150203-.198979-.4649944-.046497-1.0366013.341887-1.2760693l3.420238-2.1043662c.3877-.2386479.863607-.0549464 1.063269.4108681.198979.4649944.046497 1.0366013-.342571 1.2760693l-3.419554 2.1043662c-.115558.0705283-.238638.1041522-.359666.1041522" fill="#e8364b"/><path d="m45.607488 91h-3.214976c-10.1155784 0-18.392512-8.0701631-18.392512-17.933039v-3.1346609c0-9.8628759 8.2769336-17.9323001 18.392512-17.9323001h3.214976c10.1155784 0 18.392512 8.0694242 18.392512 17.9323001v3.1346609c0 9.8628759-8.2769336 17.933039-18.392512 17.933039" fill="#9e223e"/><path d="m47.6071395 91h-3.2150369c-10.1157701 0-18.3921026-8.0701631-18.3921026-17.933039v-3.1346609c0-9.8628759 8.2763325-17.9323001 18.3921026-17.9323001h3.2150369c10.116528 0 18.3928605 8.0694242 18.3928605 17.9323001v3.1346609c0 9.8628759-8.2763325 17.933039-18.3928605 17.933039" fill="#e8364b"/><path d="m103.607488 91h-3.214976c-10.1163363 0-18.392512-8.0701631-18.392512-17.933039v-3.1346609c0-9.8628759 8.2761757-17.9323001 18.392512-17.9323001h3.214976c10.115578 0 18.392512 8.0694242 18.392512 17.9323001v3.1346609c0 9.8628759-8.276934 17.933039-18.392512 17.933039" fill="#9e223e"/><path d="m46.2376124 85.4700198-.2379938.1106305-.237231-.1106305c-2.1343165-.9994127-3.9330007-2.41369-5.3533357-4.2032143.0022884-.0762454-.0259352-.1577233-.0953501-.2459288-1.1274195-1.44343-2.0092172-3.1290512-2.6194578-5.0090234-1.0351206-3.188104-.9344864-5.8200652-.9298541-5.9306957l.0183072-.4200972.4668341-.0470928c2.49207-.2504138 4.6340146-1.161621 5.9917999-1.8814672 1.4538982-.7706765 2.3623939-1.5069678 2.4020595-1.5391105l.3569908-.295264.3585164.2975065c.0961128.0777404.9763849.7826366 2.3997711 1.536868 1.3570225.7198462 3.4982043 1.6310534 5.9917999 1.8814672l.4660713.0470928.0183072.4200972c.0053396.1106305.1060293 2.7425917-.9290913 5.9306957-.6102406 1.8799722-1.4920383 3.5655934-2.6202206 5.0090234-.0701777.0897005-.0991641.1726734-.0991641.2519088-1.4195722 1.7857868-3.2167308 3.1985691-5.3487589 4.1972343m11.7623876-8.8526884c0-2.903305-.2631663-5.5412462-.7894988-7.8592557-1.5271271-6.7252923-5.2671392-10.7580757-11.2108826-10.7580757-5.8750914 0-9.5983218 3.9415879-11.1567238 10.530087-.5621841 2.3733248-.8428948 5.0890064-.8428948 8.0872444 0 1.3193443.0724661 2.608041.2112958 3.85712.01907-.004485.0366144-.0097176.0556845-.0149501-.0007628.0127076-.0030512.0261626-.0030512.0396177 0 1.4673501 4.7736071 1.743179 5.9063662 1.0786481 1.4462702 1.7977468 3.2686012 3.2232367 5.4258017 4.2331144l.4035216.1891185.4050472-.1891185c2.1472841-1.0053927 3.9635127-2.4234075 5.4067317-4.2114368 1.0770747.7019061 5.6416744.5539004 5.9384039-.8087992.0213584-.096428.0358516-.194351.0358516-.2915265v-.0007475c.1403553-1.256554.214347-2.5534732.214347-3.8810401" fill="#fff"/><g fill="#e8364b"><path d="m37.5 89v12"/><path d="m36.9995673 102c-.5521419 0-.9995673-.374346-.9995673-.836304v-11.3273921c0-.4619584.4474254-.8363039.9995673-.8363039.5530073 0 1.0004327.3743455 1.0004327.8363039v11.3273921c0 .461958-.4474254.836304-1.0004327.836304"/><path d="m53.5 89v12"/><path d="m53 102c-.552381 0-1-.374346-1-.836304v-11.3273921c0-.4619584.447619-.8363039 1-.8363039.5532468 0 1 .3743455 1 .8363039v11.3273921c0 .461958-.4467532.836304-1 .836304"/><path d="m95.5 89v12"/><path d="m95.9995673 102c-.5521419 0-.9995673-.374346-.9995673-.836304v-11.3273921c0-.4619584.4474254-.8363039.9995673-.8363039.5530073 0 1.0004327.3743455 1.0004327.8363039v11.3273921c0 .461958-.4474254.836304-1.0004327.836304"/><path d="m111.5 87v14"/><path d="m112 102c-.552381 0-1-.460915-1-1.029703v-13.9413484c0-.5680339.447619-1.0289486 1-1.0289486.553247 0 1 .4609147 1 1.0289486v13.9413484c0 .568788-.446753 1.029703-1 1.029703"/><path d="m105.607139 91h-3.215036c-10.1157705 0-18.392103-8.0701631-18.392103-17.933039v-3.1346609c0-9.8628759 8.2763325-17.9323001 18.392103-17.9323001h3.215036c10.116529 0 18.392861 8.0694242 18.392861 17.9323001v3.1346609c0 9.8628759-8.276332 17.933039-18.392861 17.933039"/></g><path d="m114.012253 65.1960093c-.907585-1.2308988-2.351403-1.9363486-4.419835-2.1676688-.168594-.0206809-.337931-.0283405-.513952-.0283405-1.837452 0-3.917767.9375359-5.07713 2.7061392-1.166046-1.7686033-3.246362-2.7061392-5.077129-2.7061392-.1767637 0-.352042.0076596-.5154371.0283405-2.0662045.2313202-3.5100225.93677-4.4198358 2.1600092-.8934737 1.2171116-1.1853567 2.8869059-.860052 4.9626595.4872143 3.0492895 4.4332044 6.8714334 7.5978689 9.9482976.915013.8877485 1.735701 1.6835816 2.271934 2.280265 0 0 .540689.6204282 1.049442.6204282.502068 0 1.031617-.6280878 1.031617-.6280878.528805-.5943855 1.347266-1.3994102 2.263764-2.2940523 3.137184-3.0669067 7.041583-6.8852208 7.523598-9.9268507.331989-2.0757536.040107-3.7378883-.854853-4.9549999" fill="#fff"/><path d="m64 71.5313577 8.0607039 4.4686423 12.9392961-5" stroke="#e7364b" stroke-linecap="round" stroke-linejoin="round" stroke-width="2.2"/><path d="m0 77.5003748c0-42.2494182 34.250207-76.5003748 76.5003748-76.5003748 42.2494182 0 76.4996252 34.2509566 76.4996252 76.5003748s-34.250207 76.4996252-76.4996252 76.4996252c-42.2501678 0-76.5003748-34.250207-76.5003748-76.4996252z" stroke="#ff9ca8" stroke-width="5"/></g></svg>

<?xml version="1.0" encoding="UTF-8"?>
<svg width="159px" height="159px" viewBox="0 0 159 159" version="1.1" xmlns="http://www.w3.org/2000/svg" xmlns:xlink="http://www.w3.org/1999/xlink">
    <title>Group 61</title>
    <g id="Page-1" stroke="none" stroke-width="1" fill="none" fill-rule="evenodd">
        <g id="ORGANISER-UNE-COLLECTE" transform="translate(-712.000000, -1745.000000)">
            <g id="Group-61" transform="translate(715.000000, 1747.000000)">
                <path d="M155,76.4996273 C155,118.750018 120.52558,153 78,153 C35.4736698,153 1,118.750018 1,76.4996273 C1,34.2499817 35.4736698,0 78,0 C120.52558,0 155,34.2499817 155,76.4996273" id="Fill-1" fill="#FFFFFF"></path>
                <polyline id="Stroke-3" stroke="#9E223E" stroke-width="2.2" stroke-linecap="round" stroke-linejoin="round" points="64 73.5312845 72.0607039 78 85 73"></polyline>
                <path d="M120.759179,71 C120.484517,71 120.21839,70.8472179 120.084162,70.5818179 C119.89252,70.2030127 120.039161,69.738366 120.41236,69.5446319 L130.89451,64.0854266 C131.267708,63.890905 131.724702,64.0397495 131.916345,64.4185547 C132.107211,64.7965724 131.96057,65.2612191 131.587371,65.4549531 L121.105221,70.914946 C120.99427,70.9724362 120.875561,71 120.759179,71" id="Fill-5" fill="#9E223E"></path>
                <path d="M130.757951,66 C130.608983,66 130.458463,65.9566756 130.326564,65.8677466 C129.982076,65.6344029 129.89673,65.1707559 130.134923,64.8332816 L132.616947,61.3209652 C132.855917,60.9827309 133.328425,60.8983624 133.672913,61.1324661 C134.017402,61.3658098 134.103524,61.8294568 133.86533,62.166171 L131.38253,65.6792475 C131.235114,65.8882687 130.998472,66 130.757951,66" id="Fill-7" fill="#9E223E"></path>
                <path d="M135.330049,68 C135.261561,68 135.191702,67.9870175 135.122529,67.9602411 L131.462493,66.5475825 C131.110461,66.4112662 130.918693,65.9641812 131.033069,65.5479297 C131.147445,65.1308668 131.524818,64.903673 131.87685,65.0391779 L135.53757,66.4518365 C135.888917,66.5881528 136.08137,67.0360491 135.966994,67.4514892 C135.874535,67.7866001 135.612223,68 135.330049,68" id="Fill-9" fill="#9E223E"></path>
                <path d="M132.703515,66 C132.448363,66 132.201836,65.8713192 132.077494,65.6471228 C131.900685,65.328074 132.036526,64.9373885 132.382239,64.7735527 L135.976647,63.0715171 C136.321641,62.9083446 136.745696,63.0337088 136.922506,63.3527576 C137.099315,63.6711431 136.963474,64.0624918 136.617761,64.2256644 L133.023353,65.9283633 C132.921292,65.9767844 132.811325,66 132.703515,66" id="Fill-11" fill="#9E223E"></path>
                <line x1="130" y1="64" x2="120" y2="69" id="Fill-13" fill="#E8364B"></line>
                <path d="M119.876905,70 C119.559101,70 119.251916,69.8266027 119.097185,69.5244825 C118.875709,69.0943965 119.045608,68.5666327 119.476426,68.3462893 L129.722758,63.0966667 C130.154335,62.8763233 130.682238,63.0451775 130.902956,63.4760206 C131.124433,63.9053493 130.953775,64.4331132 130.523715,64.6534565 L120.275866,69.9030792 C120.148441,69.9689551 120.011914,70 119.876905,70" id="Fill-15" fill="#E8364B"></path>
                <line x1="132" y1="61" x2="130" y2="64" id="Fill-17" fill="#E8364B"></line>
                <path d="M129.838105,65 C129.672609,65 129.507114,64.9524018 129.361216,64.8521573 C128.98014,64.5903674 128.885779,64.0711149 129.149265,63.6932144 L131.471286,60.3591803 C131.734773,59.9812798 132.258117,59.8860835 132.638466,60.1478733 C133.019542,60.4103844 133.114629,60.9289157 132.850417,61.3082586 L130.52767,64.6415715 C130.365804,64.874514 130.103769,65 129.838105,65" id="Fill-19" fill="#E8364B"></path>
                <line x1="135" y1="66" x2="131" y2="65" id="Fill-21" fill="#E8364B"></line>
                <path d="M135.094215,67 C135.001746,67 134.906926,66.985936 134.813673,66.9570677 L130.62514,65.6683577 C130.149473,65.5217956 129.889306,65.039177 130.04525,64.589868 C130.199626,64.1412993 130.710557,63.8962889 131.186224,64.0421108 L135.373973,65.3308208 C135.850423,65.4766426 136.109807,65.9600014 135.955431,66.4093104 C135.830049,66.7697939 135.475062,67 135.094215,67" id="Fill-23" fill="#E8364B"></path>
                <line x1="135" y1="62" x2="131" y2="64" id="Fill-25" fill="#E8364B"></line>
                <path d="M131.790915,65 C131.50373,65 131.227485,64.812198 131.087312,64.4849797 C130.888333,64.0199853 131.040815,63.4483784 131.429199,63.2089104 L134.849437,61.1045442 C135.237137,60.8658963 135.713044,61.0495978 135.912706,61.5154123 C136.111685,61.9804067 135.959203,62.5520136 135.570135,62.7914816 L132.150581,64.8958478 C132.035023,64.9663761 131.911943,65 131.790915,65" id="Fill-27" fill="#E8364B"></path>
                <path d="M45.607488,91 L42.392512,91 C32.2769336,91 24,82.9298369 24,73.066961 L24,69.9323001 C24,60.0694242 32.2769336,52 42.392512,52 L45.607488,52 C55.7230664,52 64,60.0694242 64,69.9323001 L64,73.066961 C64,82.9298369 55.7230664,91 45.607488,91" id="Fill-29" fill="#9E223E"></path>
                <path d="M47.6071395,91 L44.3921026,91 C34.2763325,91 26,82.9298369 26,73.066961 L26,69.9323001 C26,60.0694242 34.2763325,52 44.3921026,52 L47.6071395,52 C57.7236675,52 66,60.0694242 66,69.9323001 L66,73.066961 C66,82.9298369 57.7236675,91 47.6071395,91" id="Fill-31" fill="#E8364B"></path>
                <path d="M103.607488,91 L100.392512,91 C90.2761757,91 82,82.9298369 82,73.066961 L82,69.9323001 C82,60.0694242 90.2761757,52 100.392512,52 L103.607488,52 C113.723066,52 122,60.0694242 122,69.9323001 L122,73.066961 C122,82.9298369 113.723066,91 103.607488,91" id="Fill-33" fill="#9E223E"></path>
                <path d="M46.2376124,85.4700198 L45.9996186,85.5806503 L45.7623876,85.4700198 C43.6280711,84.4706071 41.8293869,83.0563298 40.4090519,81.2668055 C40.4113403,81.1905601 40.3831167,81.1090822 40.3137018,81.0208767 C39.1862823,79.5774467 38.3044846,77.8918255 37.694244,76.0118533 C36.6591234,72.8237493 36.7597576,70.1917881 36.7643899,70.0811576 L36.7826971,69.6610604 L37.2495312,69.6139676 C39.7416012,69.3635538 41.8835458,68.4523466 43.2413311,67.7325004 C44.6952293,66.9618239 45.603725,66.2255326 45.6433906,66.1933899 L46.0003814,65.8981259 L46.3588978,66.1956324 C46.4550106,66.2733728 47.3352827,66.978269 48.7586689,67.7325004 C50.1156914,68.4523466 52.2568732,69.3635538 54.7504688,69.6139676 L55.2165401,69.6610604 L55.2348473,70.0811576 C55.2401869,70.1917881 55.3408766,72.8237493 54.305756,76.0118533 C53.6955154,77.8918255 52.8137177,79.5774467 51.6855354,81.0208767 C51.6153577,81.1105772 51.5863713,81.1935501 51.5863713,81.2727855 C50.1667991,83.0585723 48.3696405,84.4713546 46.2376124,85.4700198 M58,76.6173314 C58,73.7140264 57.7368337,71.0760852 57.2105012,68.7580757 C55.6833741,62.0327834 51.943362,58 45.9996186,58 C40.1245272,58 36.4012968,61.9415879 34.8428948,68.530087 C34.2807107,70.9034118 34,73.6190934 34,76.6173314 C34,77.9366757 34.0724661,79.2253724 34.2112958,80.4744514 C34.2303658,80.4699664 34.2479102,80.4647338 34.2669803,80.4595013 C34.2662175,80.4722089 34.2639291,80.4856639 34.2639291,80.499119 C34.2639291,81.9664691 39.0375362,82.242298 40.1702953,81.5777671 C41.6165655,83.3755139 43.4388965,84.8010038 45.596097,85.8108815 L45.9996186,86 L46.4046658,85.8108815 C48.5519499,84.8054888 50.3681785,83.387474 51.8113975,81.5994447 C52.8884722,82.3013508 57.4530719,82.1533451 57.7498014,80.7906455 C57.7711598,80.6942175 57.785653,80.5962945 57.785653,80.499119 L57.785653,80.4983715 C57.9260083,79.2418175 58,77.9448983 58,76.6173314" id="Fill-35" fill="#FFFFFF"></path>
                <line x1="37.5" y1="89" x2="37.5" y2="101" id="Fill-37" fill="#E8364B"></line>
                <path d="M36.9995673,102 C36.4474254,102 36,101.625654 36,101.163696 L36,89.8363039 C36,89.3743455 36.4474254,89 36.9995673,89 C37.5525746,89 38,89.3743455 38,89.8363039 L38,101.163696 C38,101.625654 37.5525746,102 36.9995673,102" id="Fill-39" fill="#E8364B"></path>
                <line x1="53.5" y1="89" x2="53.5" y2="101" id="Fill-41" fill="#E8364B"></line>
                <path d="M53,102 C52.447619,102 52,101.625654 52,101.163696 L52,89.8363039 C52,89.3743455 52.447619,89 53,89 C53.5532468,89 54,89.3743455 54,89.8363039 L54,101.163696 C54,101.625654 53.5532468,102 53,102" id="Fill-43" fill="#E8364B"></path>
                <line x1="95.5" y1="89" x2="95.5" y2="101" id="Fill-45" fill="#E8364B"></line>
                <path d="M95.9995673,102 C95.4474254,102 95,101.625654 95,101.163696 L95,89.8363039 C95,89.3743455 95.4474254,89 95.9995673,89 C96.5525746,89 97,89.3743455 97,89.8363039 L97,101.163696 C97,101.625654 96.5525746,102 95.9995673,102" id="Fill-47" fill="#E8364B"></path>
                <line x1="111.5" y1="87" x2="111.5" y2="101" id="Fill-49" fill="#E8364B"></line>
                <path d="M112,102 C111.447619,102 111,101.539085 111,100.970297 L111,87.0289486 C111,86.4609147 111.447619,86 112,86 C112.553247,86 113,86.4609147 113,87.0289486 L113,100.970297 C113,101.539085 112.553247,102 112,102" id="Fill-51" fill="#E8364B"></path>
                <path d="M105.607139,91 L102.392103,91 C92.2763325,91 84,82.9298369 84,73.066961 L84,69.9323001 C84,60.0694242 92.2763325,52 102.392103,52 L105.607139,52 C115.723668,52 124,60.0694242 124,69.9323001 L124,73.066961 C124,82.9298369 115.723668,91 105.607139,91" id="Fill-53" fill="#E8364B"></path>
                <path d="M114.012253,65.1960093 C113.104668,63.9651105 111.66085,63.2596607 109.592418,63.0283405 C109.423824,63.0076596 109.254487,63 109.078466,63 C107.241014,63 105.160699,63.9375359 104.001336,65.7061392 C102.83529,63.9375359 100.754974,63 98.924207,63 C98.7474433,63 98.572165,63.0076596 98.4087699,63.0283405 C96.3425654,63.2596607 94.8987474,63.9651105 93.9889341,65.1883497 C93.0954604,66.4054613 92.8035774,68.0752556 93.1288821,70.1510092 C93.6160964,73.2002987 97.5620865,77.0224426 100.726751,80.0993068 C101.641764,80.9870553 102.462452,81.7828884 102.998685,82.3795718 C102.998685,82.3795718 103.539374,83 104.048127,83 C104.550195,83 105.079744,82.3719122 105.079744,82.3719122 C105.608549,81.7775267 106.42701,80.972502 107.343508,80.0778599 C110.480692,77.0109532 114.385091,73.1926391 114.867106,70.1510092 C115.199095,68.0752556 114.907213,66.4131209 114.012253,65.1960093" id="Fill-55" fill="#FFFFFF"></path>
                <polyline id="Stroke-57" stroke="#E7364B" stroke-width="2.2" stroke-linecap="round" stroke-linejoin="round" points="64 71.5313577 72.0607039 76 85 71"></polyline>
                <path d="M0,77.5003748 C0,35.2509566 34.250207,1 76.5003748,1 C118.749793,1 153,35.2509566 153,77.5003748 C153,119.749793 118.749793,154 76.5003748,154 C34.250207,154 0,119.749793 0,77.5003748 Z" id="Stroke-59" stroke="#E9364B" stroke-width="5"></path>
            </g>
        </g>
    </g>
</svg>
